X:7
T:The Wee Folk's Revenge
R:clan march
D:Snug in the Blanket,P.O'Brien,J.Gans,D.Sproule
C:Paddy O'Brien (Offaly)
Z:Paul Stewart Cranford (P.S.C.), <http://www.cranfordpub.com>
L:1/8
Q:288
M:6/8
K:Amix
e2 c Acd|e2 c ABc|d2 B GAB|d2 B GAB|
e2 c AB/c/d|e2 c a2 c|d2 B g2 B|d2 B g2 B|
A/B/AA BGE|A/B/AA BGE|EFE EF^G|E3 EDC|
DB,B, GB,B,|DB,B, GB,B,|CA,A, EA,A,|CA,A, EDC|
DB,B, GB,B,|DB,B, GB,B,|EFE EF^G|E3 EF^G||
||A2 e ecA|G2 d dBG|A2 e ecA|aba ecA|
A2 e ecA|G2 B BAG|FAG FED|E3 EF^G|
A3 ABA|e3 ecB|A3 ABA|e3 edc|
dBB gBB|dBB gBB|cAA eAA|cAA eAA|
dBB gBB|dBB gBB|efe ef^g|e3 eaf|]
